X:1
T:Penpark, SM
T:Penpark, SM
T:John Thomas Rees (1857-1949)
T:Public Domain Courtesy of the Cyber Hymnal™
C:John Thomas Rees (1857-1949)
Z:Public Domain
Z:Courtesy of the Cyber Hymnal™
%%score 1 ( 2 3 )
L:1/8
Q:1/4=135
M:4/4
K:G
V:1 treble 
V:2 bass 
V:3 bass 
V:1
 [DG]4 [DG]2 [DG]2 | [EG]4 [^CG]4 | [^DF]8 | [EG]4 [B,E]2 [CG]2 | [DG]4 [CF]4 | [B,G]8 | %6
 [GB]4 [GB]2 [GB]2 | [FB]4 [AB]4 | [GB]4 [Gc]4 | [FA]8 | [GB]4 [EA]2 [Ec]2 | [DG]4 [DA]4 | [DG]8 |] %13
V:2
 [G,B,]4 [G,B,]2 [G,B,]2 | [E,B,]4 [E,^A,]4 | [B,,B,]8 | [E,G,]4 G,2 [E,A,]2 | [D,B,]4 [D,A,]4 | %5
 G,8 | [G,D]4 [G,D]2 [G,D]2 | [B,^D]4 [^D,F]4 | [E,E]4 [C,E]4 | [D,D]8 | [G,D]4 [C,C]2 [C,A,]2 | %11
 [D,B,]4 [D,C]4 | [G,B,]8 |] %13
V:3
 x8 | x8 | x8 | x4 G,2 x2 | x8 | G,8 | x8 | x8 | x8 | x8 | x8 | x8 | x8 |] %13

